!!!COM: Johannes Brahms
!!!CNT: Deutscher
!!!TXO: Deutsche
!!!OTL: Voru2ber
!!!OPS: Op. 58
!!!ONM: No. 7
!!!LYR: Hebbel
!!!ONB: Original key: F Major
!!!ENC: Ayako Kataoka        
!!!EED: Leigh VanHandel
!!!YOR: C.F. Peters, Brahms Lieder fu2r eine Singstimme mit Klavierbegleitung, Band III, ausgabe fu2r tiefere Stimme
!!!ODT: 1871/
!!NB: Vocal melody and text only encoded.
**kern	**silbe
*clefG2	*
*k[f#c#]	*
*M4/4	*
*MM[adagio]	*
!! tempo indication: sehr langsam
=2	=2
2r	.
4r	.
{4f#	{Ich
=3	=3
(4.a	leg-
8e)	|
(4f#	-te
4a)	mich
=4	=4
4.cc	un-
8ee	|
4dd	-ter
4f#	den
=5	=5
4.b	Lin-
8cc#	-den-
4a}	-baum,}
4r	.
=6	=6
2r	.
4r	.
{4f#	{in
=7	=7
2.e	dem
4b	die
=8	=8
(4.dd	Nach-
8a)	|
4g	-ti-
4e	-gall
=9	=9
2f#}	schlug;}
4r	.
{4b	{sie
=10	=10
2ff#}	sang,}
4r	.
{4a#	{sie
=11	=11
4.dd	sang
8ccn	mich
4.b-	in
8a	den
=12	=12
[2dd	su2-
6dd]	|
6ccn	-sse-
6b-	-sten
=13	=13
2a}	Traum,}
4r	.
{4a	{sie
=14	=14
4.b-	sang
8ccn	mich
4.a	in
8ffn	den
=15	=15
(4.ffn	su2-
8ee-)	|
(8dd	-sse-
8ccn)	|
(8b-	-sten
8a-)	|
=16	=16
2g}	Traum,}
4r	.
{4ee-	{der
=17	=17
4dd	wa2hr-
4fn}	-te,}
4r	.
{4cc#	{der
=18	=8
2dd	wa2hr-
4dd	-te
4ff	auch
=19	=19
(4.ee	lan-
8dd)	|
4cc#	-ge
4bn	ge-
=20	=20
2a}	-nug.}
2r	.
!!skipping m 21
=22	=22
4r	.
8r	.
{8a	{Denn
4a	nun
8a	ich
8a	er-
=23	=23
4cc#	-wa-
4a}	-che,}
4r	.
{4a	{nun
=24	=24
2.a	ist
4g#	sie
=25	=25
2f#}	fort,}
4r	.
{4f#	{und
=26	=26
([2a	welk
8a]	|
8g#)	|
(8a	be-
8b)	|
=27	=27
(4.b	-deckt
8f)	|
4a	mich
4g#	das
=28	=28
2f#}	Laub,}
4r	.
{4dd#	{und
=29	=29
([2cc#	welk
8cc#]	|
8b)	|
(8cc#	be-
8ddn)	|
=30	=30
2f#	-deckt
4.a	mich
8g#	das
=31	=31
2f#}	Laub,}
4r	.
{4f#	{doch
=32	=32
([2gn	lei-
8gn]	|
8b)	|
8a	-der
8g	noch
=33	=33
2a	nicht
4.a	wie
8a	am
=34	=34
([2a	dunk-
8a]	|
8ccn)	|
(8b-	lern
8a)	|
=33	=33
2b-}	Ort,}
8r	.
{4b-	{wie
8a-	am
=35	=35
4.g-	dunk-
8e-	-lern
4.fn}	Ort,}
{8d	{ver-
=36	=36
(8d	glu2h-
8fn)	|
(8a	-te
8dd)	|
4ee	A-
4a}	-sche,}
=37	=37
4r	.
{4dd	{ver-
4ccn	-glu2h-
4b-	-te
=38	=38
4b-	A-
4a}	-sche}
4r	.
{4c#	{der
=39	=39
2d}	Staub.}
2r	.
*-	*-
